X:1
T:Title
%%score { 1 | 2 }
L:1/8
Q:1/4=84
M:6/8
K:Bb
V:1 treble nm="Grand Piano"
V:2 bass 
V:1
 [DF][DB][EG] [EG]>[DF][DF] | [DF][DB][EG] [DF]3 | FcA G>FF | c=Bc [Fd]3 | %4
w: J.~Lincoln~Hall * * * * *||||
 [DF][DB][EG] [EG]>[DF][DF] | [FB][FB][FA] [EG]3 | [Gc][GB]G F>Bd | cdc [B,DB]3 | [FBd]3 [FBd]3 | %9
w: |||||
 [FBd]3 [FBd]3 | [FAe]3 [FAe]3 | [FAe]3 [FBf]3 | [F,DF][B,DB][G,EG] [G,EG]>[F,DF][F,DF] | %13
w: ||||
 [B,FB][B,FB][B,FA] [B,EG]3 | [Ge][Gd][Gc] [Ff]>[Fd][FB] | [=Ec][EG][_EA] [DB]3 |] %16
w: |||
V:2
 [B,,B,][B,,F,][B,,G,] [B,,B,]>[B,,B,][B,,B,] | [B,,B,][B,,F,][B,,G,] [B,,B,]3 | %2
 [F,A,E][F,A,E][F,CE] [F,B,E]>[F,A,E][F,A,E] | [F,A,E][F,A,D][F,A,E] [B,,B,]3 | %4
 [B,,B,][B,,F,][B,,G,] [B,,B,]>[B,,B,][B,,B,] | [D,B,][D,B,][D,B,] [E,B,]3 | %6
 [E,B,][E,E][E,B,E] [F,B,D]>[F,B,D][F,B,F] | [F,A,E][F,A,F][F,A,E] B,,3 | F,B,G, G,>F,F, | %9
 F,B,G, F,3 | F,CA, G,>F,F, | C=B,C D3 | B,,B,,B,, B,,>B,,B,, | D,D,D, E,3 | %14
 [C,C][D,=B,][E,C] [D,_B,]>[D,B,][D,B,] | [C,C][C,C][F,C] [B,,B,]3 |] %16

